X: 11694
Q: "Slow Strathspey time."
M: C
L: 1/16
K: A
c>B |\
!p!d2 |"8va at pleasure _ _ _ _ _ _"\
c3Ae3c dcBA e3d | c3Ad3c B4 Bd3 |
c3Ae3c [d'f][c'a][bg]a gfed | [f3d3][ec][e2c2][d2B2]  A4 A2cB |\
!f!ca3e3c FGA2 E3C | A,3CA3C B,4 B,2CD |\
E3FAc3 Bc3HA3E | F3DE3C A,4 A,2 |]


